X:1
T:Ave maria
T:Ave maria
T:Giancarlo Colleoni
C:Giancarlo Colleoni
%%score [ 1 2 ( 3 4 ) ( 5 6 ) ]
L:1/8
Q:1/4=80
M:2/2
K:C
V:1 treble nm="Soprano" snm="S"
V:2 treble nm="Contralto" snm="C"
V:3 treble-8 nm="Tenore" snm="T"
V:4 treble-8 
V:5 bass nm="Basso" snm="B"
V:6 bass 
V:1
!p!"^Calmo" c4 B2 c2 | A4 A4 | G4 A2 B2 | c4 B4 | z2"^cresc." A2 B2 c2 | d4 d4 | %6
w: A- ve Ma-|ri- a,|gra- ti- a|ple- na,|Do- mi- nus|te- cum|
 z2"^dim." (c2 B2) A2 | G4 (G2 A2) | B3 B B2 A2 | G3 G G4 | z8 | z8 || %12
w: Be- * ne-|dic- ta _|Tu in mu- li-|e- ri- bus,|||
!mf![Q:1/4=112]"^Movendo il tempo" z2 D2 D2 D2 | E4 E4 |"^cresc." F4 (F2 G2) | A2 A2 B2 c2 | %16
w: et be- ne-|di- ctus|fru- ctus _|ven- tris tu- i|
!f! d8 | !breath!e8 |!>(! c8!>)! |!p! B8- |!>(! B8!>)! ||[Q:1/4=92]"^Poco più calmo"!pp! z4 F4- | %22
w: Je-|sus.|Je-|sus.|_|San-|
 F4 E2 F2 | E4 E4 |!p! z2 (G2 F2) G2 | c4 A4 |!mf! z2 A2 G2 A2 | _e4 _B4 | %28
w: * cta Ma-|ri- a,|Ma- * ter|De- i,|o- ra pro|no- bis|
"^cresc. molto" z2 =e2 f2 g2 |[Q:1/4=138]"^incalz."!f! d4 !>!f4 | !>!e4 !>!d4 |"^dim. subito" e8 | %32
w: o- ra pro-|no- bis|pec- ca-|to-|
[Q:1/4=92]"^rimett. il tempo"!>(! B8!>)! |!p! !fermata!B8 | %34
w: ri-|bus,|
[Q:1/4=80]"^Calmo"!mp! z4"^(Tempo I)" A4- | A4 G2 A2 | G8 | (!>!G4 F4) | %38
w: nunc|_ et in|ho-|ra _|
[Q:1/4=72]"^Più lento"!p! z4 !>!F4- | F4 E2 F2 | E8 |!>(! !breath!E8!>)! | %42
w: nunc|* et in|ho-|ra|
!pp![Q:1/4=69]"^Lentissimo" _E8 | !breath!_E8 |!<(! ^D8!<)! | ^D4 !fermata!z4 || %46
w: mor-|tis|no-|strae.|
!p![Q:1/4=80]"^Tempo I" (=E2 D2 C2 D2 | E8-) | E8 |!>(! E8-!>)! |!pp! !fermata!E8 |] %51
w: A- * * *|||men.|_|
V:2
!p! z4 E4 | E2 F2 D4 | !breath!E8 | D4 E2 F2 | G4 F4 | z2 G2 A2 G2 | F4 F4 | E2 E2 E2 E2 | %8
w: A-|ve Ma- ri-|a,|gra- ti- a|ple- na,|Do- mi- nus|te- cum|Be- ne- dic- ta|
 E2 E2 E2 F2 | G3 G G4 | z8 | z8 || z8 |!mf! z2 C2 C2 B,2 | C4 C4 | D4 (D2 E2) | F2 F2 F2 G2 | %17
w: Tu in mu- li-|e- ri- bus,||||et be- ne-|di- ctus|fru- ctus _|ven- tris tu- i|
!f! [EA]8 | !breath![EA]8 |!p!!>(! E8!>)! |!>(! E8!>)! ||!pp! z4 D4- | D4 D2 D2 | (D2 C2) D4 | %24
w: Je-|sus.|Je-|sus.|San-|* cta Ma-|ri- * a,|
!p! z2 C4 C2 | C4 C4 |!mf! z2 ^F2 E2 F2 | G4 G4 |"^cresc. molto" z2 G2 G2 G2 |!f! _A4 !>!A4 | %30
w: Ma- ter|De- i,|o- ra pro|no- bis|o- ra pro-|no- bis|
 !>!G4 !>!G4 |"^dim. subito" G8 |!>(! G8!>)! |!p! !fermata!G8 |!mp! z4 E4- | E4 D2 E2 | D8 | C8 | %38
w: pec- ca-|to-|ri-|bus,|nunc|_ et in|ho-|ra|
!p! !>!B,8- | B,4 B,2 B,2 | _B,8 | !breath!_B,8 |!pp! (A,4 =B,2 C2) | (_B,4 !breath!C4) | %44
w: nunc|* et in|ho-|ra|mor- * *|tis _|
 (A,4 B,2 C2) |!<(! (^A,4!<)! !fermata!^B,4) ||!p! (=E2 D2 C2 D2 | E8-) | E8 | E8- | %50
w: no- * *|strae. _|A- * * *|||men.|
!pp! !fermata!E8 |] %51
w: _|
V:3
 z8 | z8 |!p! d4 c2 B2 | A4 A4 | d4 d2 c2 | B4 A4 | z2 A2 B2 c2 | d4 d4 | z2 (c2 B2) c2 | %9
w: ||A- ve Ma-|ri- a,|gra- ti- a|ple- na,|Do- mi- nus|te- cum|Be- * ne-|
 d4 (d2 c2) | B2 B2 B2 c2 | d3 d d4- ||!>(!!>(! d8!>)!!>)! | z8 |!mf! z2 A2 A2 G2 | F4 F4 | %16
w: dic- ta _|Tu in mu- li-|e- ri- bus,|_||et be- ne-|di- ctus|
 A4 (A2 B2) |!f! c2 c2 c2 !breath!B2 | A8- |!p!!>(! (A8!>)! |!>(! ^G8)!>)! ||!pp! z4 A4- | %22
w: fru- ctus _|ven- tris tu- i|Je-||sus.|San-|
 A4 B2 c2 | (B2 c2) _B4 |!p! z2 _B4 B2 | A4 A4 |!mf! z2 d2 d2 d2 | _B4 _e4 | %28
w: * cta Ma-|ri- * a,|Ma- ter|De- i,|o- ra pro|no- bis|
"^cresc. molto" z2 =e2 e2 e2 |!f! f4 !>!d4 | !>!d4 !>!d4 |"^dim. subito" d8 |!>(! d8!>)! | %33
w: o- ra pro-|no- bis|pec- ca-|to-|ri-|
!p! !fermata!d8 |!mp! z4 c4- | c4 B2 c2 | B8 | A8 |!p! z4 !>!^G4- | G4 ^G2 G2 | =G8 | !breath!G8 | %42
w: bus,|nunc|* et in|ho-|ra|nunc|* et in|ho-|ra|
!pp! ^F8 | !breath!G8 | ^F8 | ^F4 !fermata!z4 ||!p! ([=FA]8- | [FA]2!<(! [GB]2 [Ac]2 [Bd-]2!<)! | %48
w: mor-|tis|no-|strae.|A-||
!>(! d2 c2 B2!>)! A2) | [AB-]8 |!pp! !fermata![^GB]8 |] %51
w: |men.||
V:4
 x8 | x8 | x8 | x8 | x8 | x8 | x8 | x8 | x8 | x8 | x8 | x8 || x8 | x8 | x8 | x8 | x8 | x8 | x8 | %19
 x8 | x8 || x8 | x8 | x8 | x8 | x8 | x8 | x8 | x8 | x8 | x8 | x8 | x8 | x8 | x8 | x8 | x8 | x8 | %38
 x8 | x8 | x8 | x8 | x8 | x8 | x8 | x8 || x8 | x8 | A8 | x8 | x8 |] %51
V:5
 z8 | z8 |!p! z4 E,4 | E,2 F,2 D,4 | E,4 z4 | E,4 F,2 E,2 | D,4 D,4 | z2 C,2 C,2 B,,2 | A,,4 A,,4 | %9
w: ||A-|ve Ma- ri-|a,|gra- ti- a|ple- na,|Do- mi- nus|te- cum|
 z2 (C,2 B,,2) C,2 | D,3 D, D,2 C,2 | B,,2 B,,2 B,,2 C,2 || D,8 | z8 | z8 |!mf! z2 F,2 F,2 E,2 | %16
w: Be- * ne-|dic- ta Tu in|mu- li- e- ri-||||et be- ne-|
 D,4 D,4 |!f! A,,4 (A,,2 B,,2) | C,2!>(! C,2 C,2 D,2!>)! |!p! E,8 |!>(! E,8!>)! ||!pp! z4 D,4- | %22
w: di- ctus|fru- ctus _|ven- tris tu- i|Je-|sus.|San-|
 D,4 D,2 D,2 | A,,4 A,,4 |!p! z2 E,4 E,2 | (E,2 F,2) _E,4 |!mf! z2 D,2 D,2 D,2 | _D,4 D,4 | %28
w: * cta Ma-|ri- a,|Ma- ter|De- * i,|o- ra pro|no- bis|
"^cresc. molto" z2 C,2 C,2 C,2 |!f! =B,,4 !>!B,,4 | !>!B,,4 !>!B,,4 |"^dim. subito" E,8 | %32
w: o- ra pro-|no- bis|pec- ca-|to-|
!>(! E,8!>)! |!p! !fermata!E,8 |!mp! z4 F,4- | F,4 F,2 F,2 | F,8 | E,8 |!p! z4 !>!D,4- | %39
w: ri-|bus,|nunc|_ et in|ho-|ra|nunc|
 D,4 D,2 D,2 | D,8 | (_D,4 !breath!C,4) |!pp! C,8 | !breath!G,,8 | C,8 | ^F,,4 !fermata!z4 || %46
w: * et in|ho-|ra _|mor-|tis|no-|strae.|
!p! (C,6 B,,2 | A,,8- | A,,4 C,4) | [E,,E,]8- |!pp! !fermata![E,,E,]8 |] %51
w: A- *|||men.|_|
V:6
 x8 | x8 | x8 | x8 | x8 | x8 | x8 | x8 | x8 | x8 | x8 | x8 || x8 | x8 | x8 | x8 | x8 | x8 | x8 | %19
 x8 | x8 || x8 | x8 | x8 | x8 | x8 | x8 | x8 | x8 | x8 | x8 | x8 | x8 | x8 | x8 | x8 | x8 | x8 | %38
 x8 | x8 | x8 | x8 | x8 | x8 | x8 | x8 || x8 | x8 | A,,8 | x8 | x8 |] %51

